X:29
T:Butter and peas
R:Reel
O:Ireland
P:APB James Kelly
D:James Kelly: Capel Street
S:James Kelly: Capel Street
Z:Transcription, chords:Mike Long
M:C|
L:1/8
K:G
"Am"EA~A2 ABAG|"D"(3(FED) FA dcBA|"G"~G2BG "C"EcAG|"D"FDEF "G"GGDG|\
"G"GGBG "Am"EcAG|"D"(3(FED) FA dcBA|
"G"~G2BG "C"EcAG|"D"FDEF "G"GGDG|]\
"G"(3(BdB) dB "C"cd (3(efg)|"G"dedB "D"~cBAG|"G"(3(BdB) dB "C"cd (3(efg)|
"D"dcBA "G"G2DG|\
"G"(3(BdB) dB "C"cd (3(efg)|"G"dedB "D"~cBAG|"G"(3(Bcd) ef "C"~gedc|"D"BcAF "G"GFED|]
